<?xml version="1.0" encoding="UTF-8"?>
<map version="1.10" tiledversion="1.11.2" orientation="orthogonal" renderorder="right-down" width="15" height="15" tilewidth="48" tileheight="48" infinite="0" nextlayerid="3" nextobjectid="2">
 <editorsettings>
  <export target="map2.tmj" format="json"/>
 </editorsettings>
 <tileset firstgid="1" source="../../../towerDefense_tilesheet.tsx"/>
 <layer id="1" name="Tile Layer 1" width="15" height="15">
  <data encoding="csv">
268,268,268,268,268,268,268,268,268,268,268,268,268,268,268,
108,109,268,268,268,268,268,268,268,45,46,47,108,109,268,
268,268,268,268,243,243,243,243,268,75,76,77,268,268,268,
268,268,268,268,243,268,268,243,268,268,268,268,268,268,268,
268,268,268,268,243,268,268,243,268,243,243,243,243,268,268,
243,243,243,243,243,243,243,243,268,243,268,268,243,268,268,
268,268,268,268,241,19,20,268,268,243,268,268,243,268,268,
268,268,268,268,241,49,50,268,268,243,268,268,243,268,268,
268,268,268,268,241,79,80,268,268,243,108,109,243,268,268,
268,268,268,268,243,268,268,268,268,243,268,268,243,268,268,
268,243,243,243,243,243,243,243,243,243,268,268,243,268,268,
268,243,268,268,243,268,268,268,268,268,268,268,243,268,268,
268,243,268,268,243,268,268,268,268,268,268,268,243,243,243,
268,243,243,243,243,268,268,45,46,47,268,268,108,109,268,
268,268,268,268,268,268,268,75,76,77,268,268,268,268,268
</data>
 </layer>
 <objectgroup id="2" name="waypoints">
  <object id="1" x="0" y="240.223">
   <polyline points="0,0 359.363,0 359.61,-145.164 218.229,-144.516 216.214,384.091 69.9301,384.739 70.4029,239.575 456.313,240.048 455.018,-49.21 599.062,-47.915 600.233,336.3 717.431,336.279 729.086,336.751"/>
  </object>
 </objectgroup>
</map>
